static/images/pieces/shogi/cz/0NG.svg

<svg height="31.358999mm" viewBox="0 0 27.116999 31.358999" width="27.116999mm" xmlns="http://www.w3.org/2000/svg" xmlns:xlink="http://www.w3.org/1999/xlink"><linearGradient id="a" gradientUnits="userSpaceOnUse" x1="11.28926" x2="11.28926" y1="7.88113" y2="-64.683595"><stop offset="0" stop-color="#ffdba6"/><stop offset="1" stop-color="#f2c478"/></linearGradient><clipPath id="b"><path d="m0 2834.646h2834.646v-2834.646h-2834.646z" transform="translate(-318.37961 -1474.0705)"/></clipPath><g clip-path="url(#b)" stroke-miterlimit="10" transform="matrix(.35277776 0 0 -.35277776 20.877274 5.660628)"><path d="m0 0-20.266 6.952c-.309.106-.643.106-.952 0l-20.266-6.952c-.545-.187-.946-.679-1.038-1.274l-9.381-60.689c-.151-.981.569-1.871 1.515-1.871h29.646 29.647c.945 0 1.666.89 1.514 1.871l-9.381 60.689c-.092.595-.492 1.087-1.038 1.274" fill="url(#a)"/><path d="m-50.388672-64.683594c-1.479368 0-2.580071 1.39044-2.355469 2.84961l9.38086 60.6894528c.138203.89381631.746532 1.65517134 1.603515 1.9492187l20.265625 6.9511719c.486906.1670289 1.017001.1670289 1.503907 0l20.26562463-6.9511719c.85811437-.29389631 1.46545427-1.05632204 1.60351557-1.9492187l9.3808598-60.6874998c.22622-1.460013-.876537-2.851563-2.3554691-2.851563h-29.6464839zm0 1.699219h29.646485 29.6464839c.4110655 0 .7516077.38864.6738281.890625l-9.38085938 60.6894531c-.0459385.2971021-.23877171.51950609-.47265625.5996094l-20.26562537 6.953125c-.131094.044971-.269296.044971-.40039 0l-20.265625-6.953125c-.233016-.0799523-.428813-.3034269-.47461-.5996094l-9.380859-60.6894531c-.07608-.501766.261798-.890625.673828-.890625z" fill="#4d3608"/></g><g fill="#f00"><path d="m13.493854 7.3727179q-.694531.7606774-1.058334 1.0914067-.429948.4299481-1.058333.8929691h4.167189q-1.157553-.8929691-2.050522-1.9843758zm-.165365-.9921879.760678.2976564-.132292.1653646q.926042 1.0252608 1.91823 1.7528653.79375.5291669 1.686719.8598962-.297656.2976563-.496093.7276045-.529167-.2645835-1.190626-.5953128v.4630208h-1.951303v1.091407h1.951303v.661458h-1.951303v1.422136h3.075783v.694532h-6.87917v-.694532h3.009637v-1.422136h-2.083595v-.661458h2.083595v-1.091407h-2.083595v-.4630208q-.529167.3968751-.992188.6283858-.0992184-.2315107-.4299477-.6614587 1.3229167-.7606774 2.0505217-1.3890631.79375-.6945315 1.653646-1.7859382z" stroke-width=".352777"/><path d="m-.63867187 0v22.677734h1.27734374v-22.677734z" stroke-miterlimit="10" transform="matrix(.35277776 0 0 -.35277776 13.560028 25.179946)"/><path d="m-22.677734-.63867187v1.27734374h22.677734v-1.27734374z" stroke-miterlimit="10" transform="matrix(.35277776 0 0 -.35277776 17.560034 21.179922)"/><path d="m-.45117188-.45117188-8.01757812 8.01757808.9023438.9023438 8.01757808-8.01757812z" stroke-miterlimit="10" transform="matrix(.35277776 0 0 -.35277776 13.560028 21.179922)"/><path d="m-7.5664062-8.46875-.9023438.9023438 8.01757812 8.01757808.90234376-.90234376z" stroke-miterlimit="10" transform="matrix(.35277776 0 0 -.35277776 16.388459 18.3515)"/></g></svg>

<?xml version="1.0" encoding="UTF-8" standalone="no"?>
<!-- Created with Inkscape (http://www.inkscape.org/) -->

<svg
   width="27.116999mm"
   height="31.358999mm"
   viewBox="0 0 27.116999 31.358999"
   version="1.1"
   id="svg1"
   xmlns:xlink="http://www.w3.org/1999/xlink"
   xmlns="http://www.w3.org/2000/svg"
   xmlns:svg="http://www.w3.org/2000/svg">
  <defs
     id="defs1">
    <linearGradient
       xlink:href="#linearGradient22"
       id="linearGradient2"
       x1="-290.43042"
       y1="133.51753"
       x2="-290.43042"
       y2="60.952805"
       gradientUnits="userSpaceOnUse"
       gradientTransform="translate(301.71968,-125.6364)" />
    <linearGradient
       id="linearGradient22">
      <stop
         style="stop-color:#ffdba6;stop-opacity:1;"
         offset="0"
         id="stop21" />
      <stop
         style="stop-color:#f2c478;stop-opacity:1;"
         offset="1"
         id="stop22" />
    </linearGradient>
    <clipPath
       clipPathUnits="userSpaceOnUse"
       id="clipPath1354">
      <path
         d="M 0,2834.646 H 2834.646 V 0 H 0 Z"
         transform="translate(-318.37961,-1474.0705)"
         id="path1354" />
    </clipPath>
  </defs>
  <g
     id="layer1">
    <g
       id="path1353"
       clip-path="url(#clipPath1354)"
       transform="matrix(0.35277776,0,0,-0.35277776,20.877274,5.6606281)">
      <path
         style="color:#000000;fill:url(#linearGradient2);stroke-miterlimit:10;-inkscape-stroke:none"
         d="m 0,0 -20.266,6.952 c -0.309,0.106 -0.643,0.106 -0.952,0 L -41.484,0 c -0.545,-0.187 -0.946,-0.679 -1.038,-1.274 l -9.381,-60.689 c -0.151,-0.981 0.569,-1.871 1.515,-1.871 h 29.646 29.647 c 0.945,0 1.666,0.89 1.514,1.871 L 1.038,-1.274 C 0.946,-0.679 0.546,-0.187 0,0"
         id="path9" />
      <path
         style="color:#000000;fill:#4d3608;stroke-miterlimit:10;-inkscape-stroke:none"
         d="m -50.388672,-64.683594 c -1.479368,0 -2.580071,1.39044 -2.355469,2.84961 l 9.38086,60.6894528 c 0.138203,0.89381631 0.746532,1.65517134 1.603515,1.9492187 l 20.265625,6.9511719 c 0.486906,0.1670289 1.017001,0.1670289 1.503907,0 L 0.27539063,0.8046875 C 1.133505,0.51079119 1.7408449,-0.25163454 1.8789062,-1.1445312 L 11.259766,-61.832031 c 0.22622,-1.460013 -0.876537,-2.851563 -2.3554691,-2.851563 H -20.742187 Z m 0,1.699219 h 29.646485 29.6464839 c 0.4110655,0 0.7516077,0.38864 0.6738281,0.890625 L 0.19726562,-1.4042969 c -0.0459385,0.2971021 -0.23877171,0.51950609 -0.47265625,0.5996094 L -20.541016,6.1484375 c -0.131094,0.044971 -0.269296,0.044971 -0.40039,0 l -20.265625,-6.953125 c -0.233016,-0.0799523 -0.428813,-0.3034269 -0.47461,-0.5996094 L -51.0625,-62.09375 c -0.07608,-0.501766 0.261798,-0.890625 0.673828,-0.890625 z"
         id="path10" />
    </g>
    <path
       style="fill:#ff0000;stroke-width:0.352777"
       d="M 13.493854,7.3727179 Q 12.799323,8.1333953 12.43552,8.4641246 12.005572,8.8940727 11.377187,9.3570937 h 4.167189 Q 14.386823,8.4641246 13.493854,7.3727179 Z M 13.328489,6.38053 14.089167,6.6781864 13.956875,6.843551 q 0.926042,1.0252608 1.91823,1.7528653 0.79375,0.5291669 1.686719,0.8598962 -0.297656,0.2976563 -0.496093,0.7276045 -0.529167,-0.2645835 -1.190626,-0.5953128 v 0.4630208 h -1.951303 v 1.091407 h 1.951303 v 0.661458 h -1.951303 v 1.422136 h 3.075783 v 0.694532 h -6.87917 v -0.694532 h 3.009637 V 11.80449 h -2.083595 v -0.661458 h 2.083595 V 10.051625 H 11.046457 V 9.5886042 Q 10.51729,9.9854793 10.054269,10.21699 9.9550506,9.9854793 9.6243213,9.5555313 10.947238,8.7948539 11.674843,8.1664682 12.468593,7.4719367 13.328489,6.38053 Z"
       id="text1354"
       aria-label="全" />
    <path
       style="color:#000000;fill:#ff0000;stroke-miterlimit:10;-inkscape-stroke:none"
       d="M -0.63867187,0 V 22.677734 H 0.63867187 V 0 Z"
       id="path1427"
       transform="matrix(0.35277776,0,0,-0.35277776,13.560028,25.179946)" />
    <path
       style="color:#000000;fill:#ff0000;stroke-miterlimit:10;-inkscape-stroke:none"
       d="M -22.677734,-0.63867187 V 0.63867187 H 0 v -1.27734374 z"
       id="path1429"
       transform="matrix(0.35277776,0,0,-0.35277776,17.560034,21.179922)" />
    <path
       style="color:#000000;fill:#ff0000;stroke-miterlimit:10;-inkscape-stroke:none"
       d="M -0.45117188,-0.45117188 -8.46875,7.5664062 -7.5664062,8.46875 0.45117188,0.45117188 Z"
       id="path1431"
       transform="matrix(0.35277776,0,0,-0.35277776,13.560028,21.179922)" />
    <path
       style="color:#000000;fill:#ff0000;stroke-miterlimit:10;-inkscape-stroke:none"
       d="M -7.5664062,-8.46875 -8.46875,-7.5664062 -0.45117188,0.45117188 0.45117188,-0.45117188 Z"
       id="path1433"
       transform="matrix(0.35277776,0,0,-0.35277776,16.388459,18.3515)" />
  </g>
</svg>
